symbols/web/note_alt/materialsymbolsoutlined/note_alt_wght300fill1_48px.svg

<svg xmlns="http://www.w3.org/2000/svg" height="48" width="48"><path d="M15 32.9h2.25L29.7 20.45l-2.25-2.3L15 30.65Zm15.6-13.35 1.75-1.7q.3-.35.325-.775.025-.425-.325-.825l-.8-.7q-.35-.4-.75-.375-.4.025-.75.375l-1.7 1.7ZM9.9 41q-1.2 0-2.05-.85Q7 39.3 7 38.1V9.9q0-1.2.85-2.05Q8.7 7 9.9 7h10.25q-.1-1.6 1.025-2.8Q22.3 3 24 3q1.7 0 2.85 1.2 1.15 1.2 1 2.8H38.1q1.2 0 2.05.85.85.85.85 2.05v28.2q0 1.2-.85 2.05-.85.85-2.05.85ZM24 8.45q.7 0 1.2-.5t.5-1.2q0-.7-.5-1.2t-1.2-.5q-.7 0-1.175.5-.475.5-.475 1.2t.475 1.2q.475.5 1.175.5Z"/></svg>

<svg xmlns="http://www.w3.org/2000/svg" height="48" width="48"><path d="M15 32.9H17.25L29.7 20.45L27.45 18.15L15 30.65ZM30.6 19.55 32.35 17.85Q32.65 17.5 32.675 17.075Q32.7 16.65 32.35 16.25L31.55 15.55Q31.2 15.15 30.8 15.175Q30.4 15.2 30.05 15.55L28.35 17.25ZM9.9 41Q8.7 41 7.85 40.15Q7 39.3 7 38.1V9.9Q7 8.7 7.85 7.85Q8.7 7 9.9 7H19.5Q19.75 5.4 21 4.2Q22.25 3 24.05 3Q25.8 3 27.05 4.2Q28.3 5.4 28.5 7H38.1Q39.3 7 40.15 7.85Q41 8.7 41 9.9V38.1Q41 39.3 40.15 40.15Q39.3 41 38.1 41ZM24 8.5Q24.7 8.5 25.2 8Q25.7 7.5 25.7 6.85Q25.7 6.15 25.2 5.65Q24.7 5.15 24 5.15Q23.3 5.15 22.825 5.65Q22.35 6.15 22.35 6.85Q22.35 7.5 22.825 8Q23.3 8.5 24 8.5Z"/></svg>
